X: 2
T: Andy De Jarlis' jig
I: RJ J-70 E jig
R: jig
Z: Transcribed to abc by Mary Lou Knack
M: 6/8
L: 1/8
K: E
|:\
"E"EGB EGB | EGB "A"c2B | "E"EGB EGB | "D"=DFA B2A |\
"E"EGB EGB | EGB "A"c2a | "B"g2f Bcd |[1 "E"efe e3 :|[2 "E"efe e2a |]
|:\
"E"gbg efg | "A"aba c2e | "F#m/A"f2g f2e | "B7"dcB c2B |\
"E"gbg efg | "A"aba "F#m"c2a | "B"gfe Bcd |[1 "E"e3 e2a :|[2 "E"e3 e3 |]
[K:Am] "Transition:"y | "E"e_ed "E7#9"c2^c |


